dist/img/svg/icon-menu-home.svg

<svg width="14" height="14" viewBox="0 0 14 14" fill="none" xmlns="http://www.w3.org/2000/svg">
<path d="M12.7809 9.69389C12.7809 10.8521 12.7818 12.0095 12.7801 13.1678C12.7792 13.6417 12.6097 13.7965 12.0927 13.7973C10.9638 13.7989 9.83403 13.7989 8.70514 13.7973C8.21848 13.7965 8.04206 13.6328 8.0412 13.175C8.03859 11.9668 8.04554 10.7586 8.03859 9.54962C8.03424 8.76699 7.56409 8.20359 6.80629 8.04723C5.84774 7.84814 4.97435 8.53486 4.96392 9.51738C4.95176 10.7159 4.96132 11.9136 4.96045 13.1122C4.96045 13.6554 4.8101 13.7973 4.23567 13.7973C3.11721 13.7981 1.99876 13.7989 0.881174 13.7973C0.408416 13.7965 0.223311 13.6312 0.222442 13.2008C0.220704 10.8449 0.223311 8.48811 0.218966 6.13216C0.218097 5.91454 0.293703 5.7485 0.458821 5.59617C2.3177 3.87454 4.17397 2.14969 6.03371 0.42887C6.35873 0.12823 6.6403 0.126618 6.96532 0.427258C8.82507 2.14808 10.6813 3.87373 12.542 5.59375C12.7166 5.75575 12.7862 5.93308 12.7844 6.15956C12.7775 7.33794 12.7818 8.51552 12.7809 9.69389ZM1.31135 9.51416C1.31135 10.5015 1.31743 11.4881 1.307 12.4754C1.3044 12.7067 1.37305 12.7986 1.63811 12.7922C2.26729 12.7769 2.89822 12.7769 3.5274 12.7922C3.80376 12.7994 3.87849 12.7059 3.87589 12.4609C3.86459 11.4341 3.8672 10.4064 3.87241 9.37875C3.88023 8.03272 5.03345 6.98733 6.50386 6.98491C7.96298 6.9833 9.12228 8.03755 9.1301 9.38439C9.13619 10.412 9.13879 11.4389 9.12663 12.4665C9.12315 12.7188 9.21266 12.7986 9.4812 12.7922C10.0887 12.7769 10.6979 12.7753 11.3053 12.793C11.5982 12.8018 11.6999 12.7269 11.6981 12.44C11.6851 10.4757 11.6894 8.51229 11.6946 6.54806C11.6955 6.353 11.6382 6.20712 11.4869 6.06768C9.89312 4.59753 8.30278 3.12415 6.72025 1.64352C6.54558 1.4799 6.44824 1.49038 6.27878 1.64755C4.69452 3.12657 3.10505 4.60075 1.51036 6.0701C1.35741 6.21115 1.30613 6.35865 1.307 6.55289C1.31483 7.53944 1.31135 8.5268 1.31135 9.51416Z" fill="white"/>
<path d="M10.233 14.0005C9.72379 14.0005 9.21453 14.0005 8.70527 13.9997C8.09695 13.9989 7.8258 13.745 7.82407 13.1759C7.8232 12.6988 7.8232 12.2216 7.82407 11.7445C7.82494 11.0255 7.82581 10.2824 7.82146 9.55134C7.81711 8.87027 7.41996 8.38102 6.75862 8.244C6.38059 8.16582 6.00777 8.244 5.70795 8.46404C5.37772 8.70746 5.18566 9.09192 5.18132 9.5191C5.17263 10.3356 5.17436 11.1666 5.1761 11.9702C5.17697 12.3506 5.17784 12.7318 5.17784 13.1123C5.17784 13.7667 4.93103 13.9989 4.2358 13.9989H4.18366C3.08258 13.9997 1.98151 14.0005 0.880436 13.9989C0.283406 13.9981 0.00531303 13.7442 0.00531303 13.2009C0.00444399 12.2644 0.00444399 11.3278 0.00444399 10.3912C0.00444399 8.97183 0.00444399 7.55245 0.00183687 6.13308C0.000967833 5.86145 0.0974313 5.64544 0.305132 5.45362C1.28715 4.54364 2.26916 3.63366 3.25031 2.72287C4.12717 1.91042 5.00316 1.09797 5.88002 0.286318C6.29108 -0.0941158 6.70822 -0.0949218 7.11841 0.284706C7.97007 1.07298 8.82086 1.86206 9.67165 2.65114C10.6789 3.5853 11.6861 4.51865 12.695 5.4512C12.9062 5.64625 13.0035 5.87193 13.0018 6.16129C12.9966 7.01485 12.9975 7.88372 12.9983 8.72277C12.9983 9.04678 12.9983 9.3708 12.9983 9.69401V10.8522C12.9983 11.6244 12.9983 12.3965 12.9975 13.1687C12.9966 13.7498 12.7263 13.9989 12.0928 13.9997C11.4732 13.9997 10.8527 14.0005 10.233 14.0005ZM6.47879 7.81198C6.60307 7.81198 6.72908 7.82488 6.85335 7.85067C7.71283 8.0288 8.2499 8.68005 8.25511 9.54893C8.25946 10.2808 8.25859 11.0247 8.25772 11.7445C8.25685 12.2216 8.25685 12.698 8.25772 13.1751C8.25859 13.5209 8.33767 13.5959 8.7044 13.5967C9.83329 13.5983 10.9622 13.5983 12.0911 13.5967C12.4908 13.5959 12.5612 13.5322 12.5612 13.1687C12.5621 12.3965 12.5621 11.6252 12.5621 10.853V9.69481C12.5621 9.3708 12.5621 9.04759 12.5621 8.72358C12.5612 7.88291 12.5612 7.01404 12.5656 6.15968C12.5664 5.97832 12.5151 5.85581 12.3865 5.73733C11.3776 4.80478 10.3704 3.87062 9.36314 2.93646C8.51235 2.14738 7.66156 1.3583 6.8099 0.570838C6.57091 0.349993 6.42578 0.349993 6.18506 0.57245C5.30993 1.38329 4.43394 2.19574 3.55795 3.0082C2.57593 3.91898 1.59392 4.82896 0.611034 5.73813C0.485892 5.8542 0.435488 5.96785 0.435488 6.13146C0.438095 7.55084 0.438095 8.97102 0.438095 10.3904C0.438095 11.327 0.438095 12.2635 0.438964 13.2001C0.438964 13.5177 0.525868 13.5951 0.880436 13.5959C1.98151 13.5975 3.08172 13.5967 4.18192 13.5959H4.23406C4.68944 13.5959 4.74158 13.5459 4.74245 13.1115C4.74245 12.731 4.74158 12.3506 4.74071 11.9702C4.73897 11.1658 4.73724 10.3332 4.74593 9.51507C4.75201 8.96538 5.00316 8.46727 5.43768 8.14809C5.7375 7.92805 6.10337 7.81198 6.47879 7.81198ZM11.348 12.9946C11.3306 12.9946 11.3141 12.9946 11.2976 12.9938C10.7284 12.9769 10.1357 12.9769 9.48654 12.993C9.36053 12.9962 9.17716 12.9865 9.04941 12.8697C8.9208 12.752 8.90776 12.5819 8.90863 12.4634C8.92167 11.3866 8.91819 10.3033 8.9121 9.3845C8.90515 8.15131 7.8484 7.18572 6.5066 7.18572H6.50313C5.15611 7.18733 4.09588 8.15131 4.08893 9.37886C4.08372 10.2993 4.08024 11.3842 4.09241 12.4578C4.09415 12.5884 4.07937 12.7536 3.95162 12.8697C3.82388 12.9865 3.64485 12.9962 3.52058 12.993C2.90791 12.9777 2.27611 12.9777 1.64258 12.993C1.52353 12.9962 1.35059 12.9865 1.22545 12.8729C1.10117 12.76 1.08727 12.5997 1.08814 12.4731C1.09596 11.7509 1.09509 11.0159 1.09335 10.305C1.09335 10.0414 1.09248 9.77783 1.09248 9.51427L1.09335 8.73244C1.09422 8.01832 1.09509 7.28002 1.08988 6.55462C1.08814 6.29347 1.16983 6.10003 1.35667 5.92755C3.08432 4.33488 4.64338 2.8881 6.12335 1.505C6.21982 1.41473 6.33975 1.32284 6.50052 1.32284C6.66216 1.32284 6.7847 1.41795 6.87334 1.50097C8.28466 2.8204 9.7994 4.22607 11.6392 5.92432C11.8277 6.09842 11.912 6.29105 11.9112 6.54817C11.9059 8.43503 11.9016 10.4444 11.9146 12.4385C11.9155 12.5755 11.8999 12.748 11.766 12.8689C11.6487 12.9744 11.4871 12.9946 11.348 12.9946ZM10.4086 12.5779C10.7188 12.5779 11.0187 12.5819 11.3124 12.5908C11.4315 12.594 11.4627 12.5795 11.4662 12.5779C11.4662 12.5779 11.4819 12.5481 11.481 12.4401C11.468 10.4452 11.4723 8.43422 11.4775 6.54656C11.4775 6.39825 11.4393 6.30637 11.3333 6.20884C9.49262 4.51059 7.97702 3.10411 6.56483 1.78388C6.53441 1.75567 6.51355 1.73954 6.50052 1.73148C6.48748 1.74035 6.46576 1.75647 6.43186 1.78791C4.95189 3.17262 3.39196 4.62021 1.66344 6.21368C1.56089 6.30798 1.52353 6.39986 1.5244 6.5522C1.52961 7.27922 1.52874 8.01832 1.52787 8.73325L1.527 9.51507C1.527 9.77864 1.527 10.0414 1.52787 10.305C1.52874 11.0167 1.53048 11.7533 1.52266 12.4779C1.52179 12.5416 1.52787 12.5722 1.53222 12.5851C1.54525 12.5884 1.57393 12.5932 1.63129 12.5916C2.27177 12.5763 2.91138 12.5763 3.53188 12.5916C3.60227 12.5932 3.63356 12.5868 3.64485 12.5827C3.6492 12.5714 3.65789 12.5392 3.65702 12.4634C3.64485 11.3874 3.64833 10.3001 3.65354 9.37805C3.66136 7.92563 4.91278 6.78594 6.50139 6.78352H6.50573C8.08999 6.78352 9.33707 7.92483 9.34576 9.38289C9.35097 10.3025 9.35532 11.389 9.34228 12.4683C9.34141 12.5392 9.3501 12.5706 9.35445 12.5811C9.36661 12.5851 9.39964 12.5916 9.47437 12.59C9.79853 12.5819 10.1088 12.5779 10.4086 12.5779Z" fill="white"/>
</svg>

<svg width="14" height="14" viewBox="0 0 14 14" fill="none" xmlns="http://www.w3.org/2000/svg"><path d="M12.78 9.694c0 1.158.002 2.315 0 3.474 0 .474-.17.629-.687.63H8.705c-.487-.002-.663-.165-.664-.623-.002-1.208.005-2.416-.002-3.625-.005-.783-.475-1.346-1.233-1.503-.958-.199-1.832.488-1.842 1.47-.012 1.199-.003 2.397-.004 3.595 0 .543-.15.685-.724.685-1.119.001-2.237.002-3.355 0-.473 0-.658-.166-.659-.596C.221 10.845.223 8.488.22 6.132c0-.217.075-.383.24-.536C2.318 3.875 4.174 2.15 6.034.43c.325-.3.606-.302.931-.002 1.86 1.721 3.716 3.447 5.577 5.167.175.162.244.34.242.566-.007 1.178-.002 2.356-.003 3.534zm-11.469-.18c0 .988.006 1.974-.004 2.961-.003.232.066.324.331.317.63-.015 1.26-.015 1.89 0 .276.007.35-.086.348-.331a191.788 191.788 0 01-.004-3.082c.008-1.346 1.161-2.392 2.632-2.394 1.459-.002 2.618 1.053 2.626 2.4.006 1.027.009 2.054-.003 3.082-.004.252.086.332.354.325a33.616 33.616 0 011.824.001c.293.009.395-.066.393-.353a635.81 635.81 0 01-.003-5.892.595.595 0 00-.208-.48A919.371 919.371 0 016.72 1.644c-.174-.164-.272-.154-.441.004A994.104 994.104 0 011.51 6.07a.594.594 0 00-.203.483c.008.986.004 1.974.004 2.961z" fill="#fff"/><path d="M10.233 14H8.705c-.608-.001-.88-.255-.88-.824-.002-.477-.002-.954 0-1.431 0-.72 0-1.463-.004-2.194-.004-.68-.401-1.17-1.062-1.307-.378-.078-.751 0-1.051.22a1.31 1.31 0 00-.527 1.055 200.82 200.82 0 00-.005 2.451l.002 1.142c0 .655-.247.887-.942.887h-.052c-1.101 0-2.202.002-3.304 0-.597 0-.875-.255-.875-.798v-2.81c0-1.42 0-2.839-.003-4.258a.87.87 0 01.303-.68l2.945-2.73L5.88.286c.411-.38.828-.38 1.238-.001L9.672 2.65c1.007.934 2.014 1.868 3.023 2.8a.9.9 0 01.307.71c-.005.854-.005 1.723-.004 2.562v4.446c-.001.58-.272.83-.905.83l-1.86.002zM6.479 7.813c.124 0 .25.013.374.039.86.178 1.397.829 1.402 1.698.004.732.004 1.476.003 2.196v1.43c0 .346.08.42.446.422h3.387c.4-.001.47-.065.47-.428l.001-2.316v-2.13c0-.841 0-1.71.004-2.564a.515.515 0 00-.18-.423c-1.008-.932-2.016-1.866-3.023-2.8-.85-.79-1.701-1.579-2.553-2.366C6.57.35 6.426.35 6.185.572L3.558 3.008C2.576 3.92 1.594 4.83.61 5.738a.488.488 0 00-.176.393c.003 1.42.003 2.84.003 4.26L.44 13.2c0 .317.087.394.441.395 1.102.002 2.202 0 3.302 0h.052c.455 0 .508-.05.508-.485l-.001-1.14a193.18 193.18 0 01.005-2.456 1.7 1.7 0 01.692-1.367c.3-.22.665-.336 1.04-.336zm4.869 5.183l-.05-.001a33.065 33.065 0 00-1.811-.001c-.126.003-.31-.007-.438-.123-.128-.118-.141-.288-.14-.407.013-1.076.01-2.16.003-3.079-.007-1.233-1.064-2.198-2.405-2.198h-.004c-1.347.001-2.407.965-2.414 2.193-.005.92-.009 2.005.003 3.079.002.13-.013.296-.14.412-.128.117-.307.126-.431.123a38.422 38.422 0 00-1.878 0c-.12.003-.292-.007-.418-.12-.124-.113-.138-.273-.137-.4.008-.722.007-1.457.005-2.168V8.732c.001-.714.002-1.452-.003-2.177a.782.782 0 01.267-.627 949.058 949.058 0 004.766-4.423c.097-.09.217-.182.378-.182s.284.095.372.178a1001.62 1001.62 0 004.767 4.423.786.786 0 01.272.624 610.86 610.86 0 00.004 5.89c0 .137-.015.31-.149.43-.117.106-.279.127-.418.127zm-.94-.417c.31 0 .61.004.904.013.12.003.15-.011.154-.013 0 0 .016-.03.015-.138a638.27 638.27 0 01-.004-5.893.405.405 0 00-.144-.338 977.457 977.457 0 01-4.768-4.425.468.468 0 00-.064-.053.588.588 0 00-.07.057 876.53 876.53 0 01-4.768 4.426c-.102.094-.14.186-.139.338.006.727.005 1.466.004 2.181l-.001.782v.79c.002.712.003 1.448-.004 2.173a.318.318 0 00.01.107.377.377 0 00.098.007c.64-.016 1.28-.016 1.9 0a.355.355 0 00.114-.01.347.347 0 00.012-.119 184.161 184.161 0 01-.003-3.085C3.66 7.926 4.913 6.786 6.5 6.784h.005c1.584 0 2.831 1.14 2.84 2.599.005.92.01 2.006-.004 3.085a.35.35 0 00.012.113c.013.004.046.01.12.009.325-.008.635-.012.935-.012z" fill="#fff"/></svg>
